assets/img/moon.svg

<svg xmlns="http://www.w3.org/2000/svg" width="545" height="545" viewBox="0 0 545 545">
  <g fill="none" fill-rule="evenodd">
    <path fill="#FFFFFA" d="M544.8,272.4 C544.8,422.842 422.843,544.799 272.401,544.799 C121.958,544.799 0,422.842 0,272.4 C0,121.958 121.958,0 272.401,0 C422.843,0 544.8,121.958 544.8,272.4"/>
    <path fill="#E6E6E6" fill-opacity=".3" d="M199.3739 191.5917C199.3739 224.4527 172.7349 251.0917 139.8739 251.0917 107.0129 251.0917 80.3739 224.4527 80.3739 191.5917 80.3739 158.7307 107.0129 132.0917 139.8739 132.0917 172.7349 132.0917 199.3739 158.7307 199.3739 191.5917M296.954 96.5917C296.954 117.6227 279.905 134.6717 258.874 134.6717 237.843 134.6717 220.794 117.6227 220.794 96.5917 220.794 75.5607 237.843 58.5117 258.874 58.5117 279.905 58.5117 296.954 75.5607 296.954 96.5917M293.2451 201.5917C293.2451 215.0517 282.3341 225.9627 268.8741 225.9627 255.4141 225.9627 244.5031 215.0517 244.5031 201.5917 244.5031 188.1317 255.4141 177.2207 268.8741 177.2207 282.3341 177.2207 293.2451 188.1317 293.2451 201.5917"/>
  </g>
</svg>

<svg xmlns="http://www.w3.org/2000/svg" width="545" height="545" fill-rule="evenodd" xmlns:v="https://vecta.io/nano"><path fill="#fffffa" d="M544.8 272.4c0 150.442-121.957 272.4-272.4 272.4S0 422.842 0 272.4 121.958 0 272.4 0s272.4 121.958 272.4 272.4"/><path fill="#e6e6e6" fill-opacity=".3" d="M199.374 191.592c0 32.86-26.64 59.5-59.5 59.5s-59.5-26.64-59.5-59.5 26.64-59.5 59.5-59.5 59.5 26.64 59.5 59.5m97.58-95c0 21.03-17.05 38.08-38.08 38.08s-38.08-17.05-38.08-38.08 17.05-38.08 38.08-38.08 38.08 17.05 38.08 38.08m-3.71 105c0 13.46-10.91 24.37-24.37 24.37s-24.37-10.91-24.37-24.37 10.91-24.37 24.37-24.37 24.37 10.91 24.37 24.37"/></svg>
